X:1
T:Consolation No. 3
C:Franz Liszt
M:4/4
L:1/4
Q:1/4=58
K:Db
% A section — Ab4 pickup, melody spans Ab4–Db5
A | A B A d | c2 A2 | B A B c | d4 | d c B A | B2 A2 | A B c d | A3 B | c d c A | d4 |]
